X: 26465
T: Metsäkukkia
R: waltz
M: 3/4
K: Bminor
|:"Bm"F2 B2 c2|d2c2B2|f3g fe|f6|F2B2c2|d2c2B2|
"Em"g3a gf|g4f2|e2f2g2|g2f2e2|"Bm"f4d2|B6|
"F#7"F2E2F2|d4c2|1 "Bm"B4B|B6:|2 "Bm"B4B2|B3cB2|:"A"A3AA2|
A2B2A2|"D"F3FF2|F2G2F2|"A"E3EE2|E2D2E2|"D"F3FF2|
F2d2e2|"Bm"f3ff2|f2e2d2|"F#7"c4c2|c6|F2E2F2|d4c2|
"Bm"B3BB2|1 B2A2B2:|2 "Bm"B2z2ba|:"Bm"b4fe|f4dc|d4BA|
B2d2f2|"Em"g4f2|e2g2b2|"Bm"f3ff2|f6|"F#7"F2B2c2|
e6|"Bm"F2B2c2|d6|"F#7"F2E2F2|d4c2|1 "Bm"B3BB2|B4ba:|
[2 "Bm"B3BB2|B6||

